brandFactory_export/1.Light/Chip_Sim card_1Light.svg

<?xml version="1.0" encoding="UTF-8"?>
<svg width="24px" height="24px" viewBox="0 0 24 24" version="1.1" xmlns="http://www.w3.org/2000/svg" xmlns:xlink="http://www.w3.org/1999/xlink">
    <title>1.Light/Chip_Sim card_1Light</title>
    <g id="Symbols" stroke="none" stroke-width="1" fill="none" fill-rule="evenodd">
        <g id="1.Light/Chip_Sim-card_1Light" fill="#5CB615" fill-rule="nonzero">
            <path d="M17.4453782,-1.24344979e-14 C18.1915966,-1.24344979e-14 18.7731092,0.21512605 19.1764706,0.642016807 C19.5563025,1.04201681 19.7478992,1.60336134 19.7478992,2.30252101 L19.7478992,21.3109244 C19.7478992,22.010084 19.5563025,22.5714286 19.1764706,22.9714286 C18.7731092,23.3983193 18.1915966,23.6134454 17.4453782,23.6134454 L6.31260504,23.6134454 C5.56638655,23.6134454 4.98487395,23.3983193 4.58151261,22.9714286 C4.20168067,22.5714286 4.01008403,22.010084 4.01008403,21.3109244 L4.01008403,4.92436975 C4.01008403,4.83361345 4.04705882,4.74957983 4.10756303,4.68571429 L8.69579832,0.0974789916 C8.75966387,0.0336134454 8.84369748,-1.24344979e-14 8.93445378,-1.24344979e-14 L17.4453782,-1.24344979e-14 Z M17.4453782,0.672268908 L9.07226891,0.672268908 L4.68235294,5.06218487 L4.68235294,21.3109244 C4.68235294,22.3932773 5.2302521,22.9411765 6.31260504,22.9411765 L17.4453782,22.9411765 C18.5277311,22.9411765 19.0756303,22.3932773 19.0756303,21.3109244 L19.0756303,2.30252101 C19.0756303,1.22016807 18.5277311,0.672268908 17.4453782,0.672268908 Z M16.7932773,9.98655462 C16.9781513,9.98655462 17.1294118,10.1378151 17.1294118,10.3226891 L17.1294118,20.6554622 C17.1294118,20.8403361 16.9815126,20.9915966 16.7932773,20.9915966 L6.96134454,20.9915966 C6.77647059,20.9915966 6.62521008,20.8403361 6.62521008,20.6554622 L6.62521008,10.3226891 C6.62521008,10.1378151 6.77647059,9.98655462 6.96134454,9.98655462 L16.7932773,9.98655462 Z M9.89508403,17.714 L7.29708403,17.714 L7.29747899,20.3193277 L9.89508403,20.319 L9.89508403,17.714 Z M13.173084,17.714 L10.567084,17.714 L10.567084,20.319 L13.173084,20.319 L13.173084,17.714 Z M16.457084,17.714 L13.845084,17.714 L13.845084,20.319 L16.4571429,20.3193277 L16.457084,17.714 Z M7.29708403,13.936 L7.29708403,17.042 L16.457084,17.042 L16.457084,13.936 L7.29708403,13.936 Z M9.89508403,10.658 L7.29747899,10.6588235 L7.29708403,13.263 L9.89508403,13.263 L9.89508403,10.658 Z M13.173084,10.658 L10.567084,10.658 L10.567084,13.263 L13.173084,13.263 L13.173084,10.658 Z M16.4571429,10.6588235 L13.845084,10.658 L13.845084,13.263 L16.457084,13.263 L16.4571429,10.6588235 Z" id="Chip_Sim-card_1Light"></path>
        </g>
    </g>
</svg>

<svg width="24" height="24" viewBox="0 0 24 24" xmlns="http://www.w3.org/2000/svg"><path d="M17.445 0c.747 0 1.328.215 1.731.642.38.4.572.961.572 1.66v19.009c0 .7-.192 1.26-.572 1.66-.403.427-.984.642-1.73.642H6.312c-.747 0-1.328-.215-1.731-.642-.38-.4-.572-.96-.572-1.66V4.924c0-.09.037-.174.098-.238L8.696.097A.333.333 0 018.934 0h8.511zm0 .672H9.072l-4.39 4.39v16.249c0 1.082.548 1.63 1.63 1.63h11.133c1.083 0 1.63-.548 1.63-1.63V2.303c0-1.083-.547-1.63-1.63-1.63zm-.652 9.315c.185 0 .336.15.336.336v10.332a.335.335 0 01-.336.337H6.961a.337.337 0 01-.336-.337V10.323c0-.185.151-.336.336-.336h9.832zm-6.898 7.727H7.297v2.605h2.598v-2.605zm3.278 0h-2.606v2.605h2.606v-2.605zm3.284 0h-2.612v2.605h2.612v-2.605zm-9.16-3.778v3.106h9.16v-3.106h-9.16zm2.598-3.278H7.297v2.605h2.598v-2.605zm3.278 0h-2.606v2.605h2.606v-2.605zm3.284 0h-2.612v2.605h2.612v-2.604z" fill="#5CB615" fill-rule="nonzero"/></svg>
